!! 00053] TT[KA
!! Kassette von Frau Li Wenzhen, Peking - Zum Gesangsheft
!!!OTL: Xiu he bao
!!!ARE: Asia, China,ÿShaanxi, Zhenba
!! Ethnic Group: Han
!! MM, Seite 20, 3
!!!SCT: C1334
!!!YEM: Copyright 1995, estate of Helmut Schaffrath.
**kern
*ICvox
*Ivox
*M2/4
*k[f#c#g#]
*A:
{8ff#
16aa
16bb
8aa
8bb
=1
8aa
4.ff#
=2
8ccc#
8aa
16bb
16aa
8bb
=3
2ccc#}
=4
{8eee
8ccc#
8ccc#
8bb
=5
8eee
8ccc#
16ccc#
16aa
32bb
32ccc#
16bb
=6
8aa
8bb
8aa
8ff#
=7
2ff#}
=8
{8ff#
8aa
8ccc#
8bb
=9
8aa
8bb
4aa}
=10
{8aa
8aa
8bb
8bb
=11
8eee
8ccc#
16ccc#
16aa
32bb
32ccc#
16bb
=12
8aa
8bb
8aa
8ff#
=13
2ff#}
==
!!!AGN: Xiaodiao. Xin minge
!! Die Stuecke sind meist uebersteuert, also verzerrt.
!!    Vereinzelt Verzierungen.
!!!ONB: ESAC (Essen Associative Code) Database: CHINA
!!!AMT: simple duple
!!!AIN: vox
!!!EED: Helmut Schaffrath
!!!EEV: 1.0
*-
!!!OTL: Ban genzi cao
!!!ARE: Asia, China,ÿHubei,Qianjiang
!! I, 459
!!!SCT: C1460
!!!YEM: Copyright 1995, estate of Helmut Schaffrath.
**kern
*ICvox
*Ivox
*M2/4
*k[f#c#g#]
*A:
{8bb
16bb
16aa
16ff#
16aa
16aa
16ff#
=1
16bb
16ee
16ee
16ff#
4ee}
=2
{16aa
16bb
16aa
16bb
4eee
=3
16aa
16bb
16aa
16ccc#
8eee
8aa}
=4
{16bb
16aa
16bb
16bb
4ccc#
=5
16bb
16aa
16gg#
16aa
4ee}
=6
{2a
=7
8ee
8cc#
8cc#
8ee
8b
8a
4f#}
{16bb
16ccc#
16bb
16aa
16ff#
16aa
16aa
16ee
=8
16bb
16ee
16ff#
16ee
4ee}
=9
{16aa
16bb
16aa
16bb
4eee
=10
16bb
16aa
16ff#
16aa
8aa
8aa
=11
16aa
16bb
16bb
16aa
4ee}
==
!!!AGN: Xiaodiao, Qingge
!!!ONB: ESAC (Essen Associative Code) Database: HUANG
!!!AMT: simple duple
!!!AIN: vox
!!!EED: Helmut Schaffrath
!!!EEV: 1.0
*-
